X:1
T:Concerto pour clarinette K 622
T:2ème mouvement - Adagio
T:W. A. Mozart
T:Transp. pour Clarinette en Si♭
%%score ( 1 2 ) { ( 3 5 6 ) | ( 4 7 ) }
L:1/8
Q:1/4=60
M:3/4
K:Eb
V:1 treble transpose=-2 nm="Clarinette en Si♭" snm="Clar. Si♭"
V:2 treble transpose=-2 
V:3 treble nm="Piano" snm="Pia."
V:5 treble 
V:6 treble 
V:4 bass 
V:7 bass 
V:1
[K:F] c2 f3 a | ag f2 z2 | c3 f ac' | c'b a2 z2 | g3 c' ac' | g3 c' da | c4{e} (d>c) | c2 z2 z2 | %8
 z6 | z6 | z6 | z6 | z6 | z6 | z6 | z6 | a3 g fe | d2 z2 z2 | b3 a gf | e2 z2 z2 | c'3 b ag | %21
 fb- b3 a | a/g/b/g/ f2 a/gf/ | f2 z2 z2 | z6 | z6 | z6 | z6 | z6 | z6 | z6 | z6 | a>f c'3 a/f/ | %33
 e2 g2 z2 | f/4d/4=B/4G/4F/4D/4=B,/4G,/4 F,(.a .g.f) | (d>^d) e2 z2 | g3 c'/=b/ a/g/f/e/ | %37
 e/f/^c/d/ d2 z2 | (3e/d/c/(3d/e/f/ (3g/f/e/(3f/g/a/ b/c'/d'/e/ | g2 f2 z2 | G,2 d'2- d'/=b/g/f/ | %41
 ^d/e/f/^f/ g/a/=b/c'/ ^g/a/=f/=d/ | c3 ^c dg | f3/2g/4f/4 e2 z2 | %44
 G,2- G,/A,/4=B,/4C/B,/ A,/G,/F/E/ | ^C2 D2 z2 | (3E/D/C/(3D/E/F/ (3G/F/E/(3F/G/A/ B/c/d/E/ | %47
 G2 F2 z2 | .F4 z2 | .E2 g4 | .F2 a4 | %51
 (3G/^G/A/(3B/=B/c/ (3^c/d/_e/(3=e/f/^f/ (3g/^g/a/(3b/=b/c'/ | %52
 [de]/4[de]/4[de]/4[de]/4[de]/4[de]/4[de]/4[de]/4 [de]/4[de]/4[de]/4[de]/4[de]/4[de]/4[de]/4e/4 [de]/4[de]/4[de]/4[de]/4c/d/ | %53
 c2 z2 z2 | C2 C/4E/4G/4c/4E/4G/4c/4e/4 c/4d/4e/4f/4g/4a/4=b/4c'/4 | =b2 z2 z2 | %56
 z2 z/4 F/4G/4=B/4F/4G/4B/4d/4 B/4c/4d/4e/4f/4g/4a/4=b/4 | b2 z2 z2 | b4- (b/a/g/f/) | %59
 (!turn!g>a) (b/g/e/c/ e/4c/4B/4G/4E/4C/4B,/4G,/4) | (!fermata!E,4 E,/)(G,/B,/)E/ | %61
 G/F/A/G/ B2 =B2 | c2 f3 a | ag f2 z2 | c3 f ac' | c'b a2 z2 | g3 c' ac' | g3 c' da | c4 e/dc/ | %69
 c2 z2 z2 | a3 g fe | d2 z2 z2 | b3 a gf | e2 z2 z2 | c'3 b ag | fb- b3 a | a/g/a/b/ f2 a/gf/ | %77
 f2 z2 z2 | z6 | z6 | z6 | z6 | z6 | z6 | z6 | z2 z2 c/e/f/a/ | c'2- c'/=b/_b/g/ b/a/a/f/ | %87
 c'2- c'/=b/_b/g/ b/a/a/f/ | d/4^f/4g/4b/4^c'/4d'/4b/4g/4 =f2 a/gf/ | f2 z2 (3F,/A,/C/(3F/A/c/ | %90
 c2- c/=B/_B/G/ B/A/A/F/ | C2- C/=B,/_B,/G,/ B,/A,/A,/F,/ | G,d' c'b ag | %93
 (3f/c/d/(3_e/=e/f/ (3^f/g/^g/(3a/b/=b/ c'/b/_b/a/ | %94
 g/4a/4g/4a/4g/4a/4g/4a/4 g/4a/4g/4a/4g/4a/4g/4a/4 g/4a/4g/4a/4g/4a/4f/4g/4 | f2 z2 f/e/(3g/f/d/ | %96
 c4 =B_B | A2 z2 (3G,/B,/A,/(3G,/B,/D/ | C3 C DE | F6 | F,4 z2 |] %101
V:2
[K:F] x6 | x6 | x6 | x6 | x6 | x6 | x6 | x6 | x6 | x6 | x6 | x6 | x6 | x6 | x6 | x6 | x6 | x6 | %18
 x6 | x6 | x6 | x6 | x6 | x6 | x6 | x6 | x6 | x6 | x6 | x6 | x6 | x6 | x6 | x6 | x6 | x6 | x6 | %37
 x6 | x6 | x6 | x6 | x6 | x6 | x6 | x6 | x6 | x6 | x6 | %48
 x2 z/4 G/4A/4G/4F/4E/4D/4C/4 (3=B,/A,/G,/(3A/G/F/ | x6 | x6 | x6 | x6 | x6 | x6 | x6 | .D4 z2 | %57
 x6 | x6 | x6 | x6 | x6 | x6 | x6 | x6 | x6 | x6 | x6 | x6 | x6 | x6 | x6 | x6 | x6 | x6 | x6 | %76
 x6 | x6 | x6 | x6 | x6 | x6 | x6 | x6 | x6 | x6 | x6 | x6 | x6 | x6 | x6 | x6 | x6 | x6 | x6 | %95
 x6 | x6 | x6 | x6 | x6 | x6 |] %101
V:3
 [EG]B, [EG]B, [EG]B, | [DA]B, [EG]B, [EG]B, | [EG]2 z2 z2 | [DF]B, [EG]B, [EG]B, | %4
 [DF]B, [DF]B, [EG]B, | [DF]B, [DF]B, [CE]G | [B,D]F [B,D]F [A,E]F | [B,D][Ac] [GB][FA] [EG][DF] | %8
 [GB]2 [Ge]3 [Bg] | [Bg]f [Ge]2 z2 | [GB]3 [Be] [eg][gb] | [fb]a [eg]2 z2 | [df]3 [Bb] [eg][Bb] | %13
 [df]3 [Bb] c[eg] | [DB]4 [Fd]/[Ec][EB]/ | [DB][Ac] [GB][FA] [EG][DF] | [EG]B, [EG]B, [EG]B, | %17
 z [Ac]2 [GB] [FA][=EG] | [FA]C [FA]C [FA]C | [DF] [Bd]2 [=Ac] [GB][^FA] | [Gd]D CF DA | %21
 GE [DF]B EB | [CF]A [EG]B [B,D][A,F] | [G,E][Ac] [GB][FA] [EG][DF] | g4 z2 | z .[Ac]3 z2 | %26
 .f2 z2 z2 | [Fd] [Bd]2 [=Ac] [DGB][C^FA] | .g2 z2 z2 | .Gc/a/ a-[fa-] [Ba].[eg] | c2 e2 g<.f | %31
 [Ge][Ac] [GB][FA] [EG][DF] | z [B,EG] [B,EG][B,EG] [B,EG][B,EG] | %33
 z [B,DF] [B,DF][B,DF] [B,DF][B,DF] | z2 z [EG] z2 | C2 z2 z2 | z [FB] [DF][FB] [DF][FB] | %37
 z .[EG] .[CE].[EG] .[CE].[EG] | z .A .[DF].A .[DF].A | z .[GB] .[EG].[GB] .[EG].[GB] | %40
 z .[Ec] .[CE].[Ec] .[CE].[Ec] | .[F,B,D]2 .[B,FB]2 .[CEG]2 | z [DF] [B,D][DF] [CE][=A,C] | %43
 [CEA]2 [B,DB] D2 [CE] | .[DF].F .[Bdf].B .[dfb].B | z .G .[ceg].c .[egc'].c | %46
 z .A .[dfa].d .[fad'].d | z .B .[egb].e .[gbe'].e | z .F .[ce].c .[fc'].[ce] | %49
 z [B,D] [DF][FB] [Bd][df] | z [CE] [EG][Gc] [ce][eg] | z [F,B,D] [F,B,D][F,B,D] [F,B,D][F,B,D] | %52
 [F,B,C][F,B,C] [F,=A,C][F,A,C] [E,A,C][E,A,C] | [D,B,] [DFB]2 [FBd]2 [Bdf] | %54
 [dfb][B,D] [B,D][B,D] [B,D][B,D] | [=A,CE] [CE=A]2 [EAc]2 [Ace] | %56
 [ce=a][=A,E] [A,E][A,E] [A,E][A,E] | [F,A,D] [DFA]2 [FAd]2 [Adf] | [dfa]2 z2 z2 | z6 | z6 | z6 | %62
 [EG]B, [EG]B, [EG]B, | [DA]B, [EG]B, [EG]B, | [EG]B, [EG]B, [EG]B, | [DF]B, [EG]B, [EG]B, | %66
 [DF]B, [DF]B, [EG]B, | [DF]B, [DF]B, [CE]G | [B,D]F [B,D]F [=A,E]F | [B,D][Ac] [GB][FA] [EG][DF] | %70
 [EG]B, [EG]B, [EG]B, | [CE] [Ac]2 [GB] [FA][=EG] | [FA]C [FA]C [FA]C | %73
 [DF] [Bd]2 [=Ac] [GB][^FA] | [Gd]D CF DA | GE [DF]B EB | [CF]A [EG]B [B,D][A,F] | %77
 [G,E][Ac] [GB][FA] [EG][DF] | g- [Bg]2 [Bf] [ce]d | z .[Ac]3 z2 | .f2 z2 z2 | z .[Bd]3 z2 | %82
 .g2 z2 z2 | .[GB]>a a-[_ca-] [_fa][_dg] | z2 e2 g<.f | [Ge][EGB] [EGB][EGB] [EGB][EGB] | %86
 z [FAB] [FAB][FAB] [GB][GB] | z [FAB] [FAB][FAB] [GB][GB] | z [CFA] [EG][EG] [A,B,D][A,B,D] | %89
 [G,B,E][G,B,E] [G,B,E][G,B,E] [G,B,E][G,B,E] | z [A,B,F] [A,B,F][A,B,F] [G,B,E][G,B,E] | %91
 z [Bfa] [Bfa][Bfa] [Beg][Beg] | [Acf]2 z [FA] [GB][Ac] | z [B,EG] [B,EG][B,EG] [B,EG][B,EG] | %94
 [B,EF][B,EF] [B,DF][B,DF] [A,DF][A,DF] | [G,E]2 z2 C>A | G4 ^F>=F | E2 z2 .[fac']2 | %98
 .[gb]2 .[Beg]2 .[ABf]2 | .[GBe]2 .[G,B,E]2 .[G,B,E]2 | [G,B,E]2 z2 z2 |] %101
V:4
 E,6 | B,,2 E,2 z2 | E,6 | B,,2 E,2 z2 | B,,6 | B,,4 E,2 | F,2 F,2 F,2 | B,,2 z2 z2 | %8
 [E,G,]B, [E,G,]B, [E,G,]B, | [B,,A,]B, [E,G,]B, [E,G,]B, | [E,G,]B, [E,G,]B, [E,G,]B, | %11
 [B,,D,]B, [E,G,]B, [E,G,]B, | [B,,D,F,]B, [B,,D,F,]B, [E,G,]B, | %13
 [B,,D,F,]B, [B,,D,F,]B, [E,,G,,]C, | [F,,B,,D,]F, [F,,B,,D,]F, [F,,=A,,E,]F, | [B,,D,]2 z2 z2 | %16
 [E,G,]6 | A,2 [B,_D]2 CB, | [F,A,]6 | B,2 [CE]2 DC | [G,B,]2 A,2 B,2 | C2 B,4 | A,2 B,2 B,,2 | %23
 E,2 z2 z2 | [E,,E,]3 [F,,F,] [G,,G,]2 | [A,,A,]2 [B,,B,]2 C,2 | %26
 [F,,F,]2 [F,,,F,,][G,,,G,,] [A,,,A,,][=A,,,=A,,] | [B,,,B,,]2 [C,,C,]2 [D,,D,]2 | %28
 [G,,,G,,]3 [A,,,A,,] [B,,,B,,][=B,,,=B,,] | [C,,C,]2 [D,,D,]2 [E,,E,]2 | %30
 [A,,,A,,]2 [B,,,B,,]2 [B,,,B,,]2 | [E,,E,]2 z2 z2 | [E,,E,]2 z2 z2 | [B,,,B,,]2 z2 z2 | %34
 [F,,F,]6- | [F,,F,]2 B,,B, F,E, | B,6 | B,6 | B,6 | B,6 | [=A,,F,]6 | %41
 .[B,,,B,,]2 .[D,,D,]2 .[E,,E,]2 | [F,,F,]6 | [^F,,^F,]2 [G,,G,][G,B,] [=F,=A,][E,G,] | B,6 | B,6 | %46
 B,6 | B,6 | [=A,,=A,]6 | [B,,B,]2 z2 z2 | [E,,E,]2 z2 z2 | [F,,F,]2 z2 z2 | F,,2 F,,2 F,,2 | %53
 B,,2 [F,,F,]2 [D,,D,]2 | [B,,,B,,]2 z2 z2 | [B,,B,]2 [B,,,B,,]2 [B,,B,]2 | [B,,,B,,]2 z2 z2 | %57
 [B,,B,]2 [F,,F,]2 [D,,D,]2 | [B,,,B,,]2 z2 z2 | z6 | z6 | z6 | E,6 | B,,2 E,2 z2 | E,6 | %65
 B,,2 E,2 z2 | B,,6 | B,,4 E,2 | F,2 F,2 F,2 | B,,2 z2 z2 | [E,G,]6 | A,2 [B,_D]2 CB, | [F,A,]6 | %73
 B,2 [CE]2 DC | [G,B,]2 A,2 B,2 | C2 B,4 | A,2 B,2 B,,2 | E,2 z2 z2 | %78
 [E,,E,]3 [D,,D,] [C,,C,][B,,,B,,] | [A,,,A,,]2 [B,,,B,,]2 [C,,C,]2 | %80
 [F,,F,]3 [E,,E,] [D,,D,][C,,C,] | [B,,,B,,]2 [C,,C,]2 [D,,D,]2 | [G,,G,]3 [F,,F,] [E,,E,][D,,D,] | %83
 [C,,C,]2 [=B,,,=B,,]2 [_B,,,_B,,]2 | [A,,,A,,]2 [B,,,B,,]2 [B,,,B,,]2 | [E,,E,]2 z2 z2 | D4 E2 | %87
 D4 E2 | A,2 B,2 B,,2 | E,2 z2 z2 | D,4 E,2 | D,4 E,2 | A,,2 z2 z2 | B,,2 z2 z2 | B,,2 B,,2 B,,2 | %95
 C,2 z2 A,2 | B,4 B,B, | C2 z2 [A,,,A,,]2 | [B,,,B,,]6 | .[E,,E,]2 .B,,2 .G,,2 | [E,,E,]2 z2 z2 |] %101
V:5
 x6 | x6 | z B, [EG]B, [EG]B, | x6 | x6 | x6 | x6 | x6 | x6 | x6 | x6 | x6 | x6 | x6 | x6 | x6 | %16
 x6 | [CE]2 z2 z2 | x6 | x6 | x6 | x6 | x6 | x6 | eG e[df] [ce][Bd] | .[Ac]2 z [GB] [CFA][B,=EG] | %26
 a-[Aa-] [ca][Bg] [Af][Ge] | x6 | b-[Bb-] [db][cfa] [Beg][Af] | e2 .B2 z2 | %30
 f/c'/a/f/ GB [Ad-]>[de] | x6 | x6 | x6 | z [=A,CE]2 A,- [A,-DF][A,CE] | A,->[A,_D] [B,=D]2 z2 | %36
 x6 | x6 | x6 | x6 | x6 | x6 | x6 | x6 | x6 | x6 | x6 | x6 | x6 | x6 | x6 | x6 | x6 | x6 | x6 | %55
 x6 | x6 | x6 | x6 | x6 | x6 | x6 | x6 | x6 | x6 | x6 | x6 | x6 | x6 | x6 | x6 | x6 | x6 | x6 | %74
 x6 | x6 | x6 | x6 | .B2 z2 z2 | .[Ec]2 z [GB] [CFA][B,=EG] | a- [ca]2 [cg] [df][=Ae] | %81
 .[Fd]2 z [=Ac] [DGB][C^FA] | b- [db]2 [da] [eg][Bf] | e2 .e2 z2 | f/c'/a/f/ GB .[Ad]>e | x6 | x6 | %87
 x6 | x6 | x6 | x6 | x6 | x6 | x6 | x6 | x6 | x6 | x6 | x6 | x6 | x6 |] %101
V:6
 x6 | x6 | x6 | x6 | x6 | x6 | x6 | x6 | x6 | x6 | x6 | x6 | x6 | x6 | x6 | x6 | x6 | x6 | x6 | %19
 x6 | x6 | x6 | x6 | x6 | x6 | z2 _D2 z2 | x6 | x6 | x6 | x6 | z2 z2 z B | x6 | x6 | x6 | x6 | x6 | %36
 x6 | x6 | x6 | x6 | x6 | x6 | x6 | x6 | x6 | x6 | x6 | x6 | x6 | x6 | x6 | x6 | x6 | x6 | x6 | %55
 x6 | x6 | x6 | x6 | x6 | x6 | x6 | x6 | x6 | x6 | x6 | x6 | x6 | x6 | x6 | x6 | x6 | x6 | x6 | %74
 x6 | x6 | x6 | x6 | x6 | z2 _D2 z2 | x6 | z2 E2 z2 | x6 | z A z2 z2 | z2 z2 z B | x6 | x6 | x6 | %88
 x6 | x6 | x6 | x6 | x6 | x6 | x6 | x6 | x6 | x6 | x6 | x6 | x6 |] %101
V:7
 x6 | x6 | x6 | x6 | x6 | x6 | x6 | x6 | x6 | x6 | x6 | x6 | x6 | x6 | x6 | x6 | x6 | x6 | x6 | %19
 x6 | x6 | x6 | x6 | x6 | x6 | x6 | x6 | x6 | x6 | x6 | x6 | x6 | x6 | x6 | x6 | x6 | D,2 z2 z2 | %37
 E,2 z2 z2 | F,2 z2 z2 | G,2 z2 z2 | x6 | x6 | x6 | x6 | D,2 z2 z2 | E,2 z2 z2 | F,2 z2 z2 | %47
 G,2 z2 z2 | x6 | x6 | x6 | x6 | x6 | x6 | x6 | x6 | x6 | x6 | x6 | x6 | x6 | x6 | x6 | x6 | x6 | %65
 x6 | x6 | x6 | x6 | x6 | x6 | x6 | x6 | x6 | x6 | x6 | x6 | x6 | x6 | x6 | x6 | x6 | x6 | x6 | %84
 x6 | x6 | x6 | x6 | x6 | x6 | x6 | x6 | x6 | x6 | x6 | x6 | x6 | x6 | x6 | x6 | x6 |] %101

